svgs/sharp-regular/dumbbell.svg

<svg xmlns="http://www.w3.org/2000/svg" viewBox="0 0 640 512"><!--! Font Awesome Pro 6.6.0 by @fontawesome - https://fontawesome.com License - https://fontawesome.com/license (Commercial License) Copyright 2024 Fonticons, Inc. --><path d="M128 32l24 0 80 0 24 0 0 24 0 176 128 0 0-176 0-24 24 0 80 0 24 0 0 24 0 48 56 0 24 0 0 24 0 104 24 0 24 0 0 48-24 0-24 0 0 104 0 24-24 0-56 0 0 48 0 24-24 0-80 0-24 0 0-24 0-176-128 0 0 176 0 24-24 0-80 0-24 0 0-24 0-48-56 0-24 0 0-24 0-104-24 0L0 280l0-48 24 0 24 0 0-104 0-24 24 0 56 0 0-48 0-24zm48 72l0 24 0 256 0 24 0 24 32 0 0-352-32 0 0 24zm-48 48l-32 0 0 208 32 0 0-208zM464 384l0-256 0-24 0-24-32 0 0 352 32 0 0-24 0-24zm80-24l0-208-32 0 0 208 32 0z"/></svg>

<svg xmlns="http://www.w3.org/2000/svg" viewBox="0 0 640 512"><!--! Font Awesome Pro 6.5.2 by @fontawesome - https://fontawesome.com License - https://fontawesome.com/license (Commercial License) Copyright 2024 Fonticons, Inc. --><path d="M128 32h24 80 24V56 232H384V56 32h24 80 24V56v48h56 24v24V232h24 24v48H616 592V384v24H568 512v48 24H488 408 384V456 280H256V456v24H232 152 128V456 408H72 48V384 280H24 0V232H24 48V128 104H72h56V56 32zm48 72v24V384v24 24h32V80H176v24zm-48 48H96V360h32V152zM464 384V128 104 80H432V432h32V408 384zm80-24V152H512V360h32z"/></svg>
